X:1
T:Gute Nacht
T:Franz Abt
T:Emanuel Geibel 
T:Gute Nacht
T:CPDL - Creative Commons Attribution Non Commercial 3.0
T:CPDL - Creative Commons Attribution Non Commercial 3.0
T:CPDL - Creative Commons Attribution Non Commercial 3.0
T:CPDL - Creative Commons Attribution Non Commercial 3.0
C:Franz Abt
Z:Emanuel Geibel
Z:CPDL - Creative Commons Attribution Non Commercial 3.0
%%score [ ( 1 2 ) 3 4 ]
L:1/8
Q:1/4=80
M:6/8
K:G
V:1 treble nm="S\nA"
V:2 treble 
V:3 treble-8 nm="T"
V:4 bass nm="B"
V:1
!pp!"^Moderato" G | B2!<(! A c2!<)! B |!>(! (A2 B)!>)! G2 D | G2 B !>!d2 B | A3- A z A | %5
w: 1.~Schon|fängt es an zu|däm- * mern, der|Mond als Hirt er-|wacht _ und|
w: 2.~Und|wie nun al- le|Ker- * zen, ver-|lö- schen durch die|Nacht, _ da|
w: 4.~Gut'|Nacht denn, all' ihr|Mü- * den, ihr|Lie- ben nah und|fern; _ nun|
!<(! A2 A!<)! ^cBA | d3 d^cB |!>(! AdF!>)! BAG | F z!<(! ^c dF!<)!^G | A2 d f2 e | d2 z z2!pp! d | %11
w: singt der Wol- * ken-|läm- mern * ein|Lied * zur gu- * ten|Nacht, ein Lied, * ein|Lied zur gu- ten|Nacht; und|
w: schwei- gen auch * die|Schmer- zen, * die|Sonn' * und Tag * ge-|bracht, die Sonn', * die|Sonn' und Tag ge-|bracht; lind|
w: ruh' auch ich * im|Frie- den, * bis|glänzt * der Mor- * gen-|stern, bis glänzt, * bis|glänzt der Mor- gen-|stern. die|
 =c2 B A2 e | d3 B2 d | c2 B A2 e | d3 B2 G |!<(! G2 G!<)! A2 ^A |!>(! (B3-!>)! B2 =A) | %17
w: wie er singt so|lei- se, da|dringt vom Ster- nen-|krei- se der|Schall in's Ohr mir|sacht. _ _|
w: säu- seln die Cy-|pres- sen, ein|se- li- ges Ver-|ges- sen durch-|weht die Lüf- te|sacht. _ _|
w: Nach- ti- gall al-|lei- ne singt|noch im Mon- den-|schei- ne, und|lo- bet Gott den|Herrn. _ _|
!pp! (G2 D) G2 B |"^poco a poco cresc." d6 | (B2 G) B2 d |!f! e3- e2!p! e | d3 c3 | (B2 d) c2 A | %23
w: 1\-4.~Schla- * fet in|Ruh',|schla- * fet in|Ruh'! _ Die|Lie- be|Got- * tes, sie|
w: _ _ _ _||||||
w: _ _ _ _||||||
 G3 A2 ^A | B2 z z3 |!p! d3 A2 ^A | B2 z z3 |!pp! d3 A2 ^A | B2!f! !>!G !>!B2 !>!d |!ff! g6- | %30
w: de- cket euch|zu.|Schla- fet in|Ruh',|schla- fet in|Ruh'! Die Lie- be|Got-|
w: |||||||
w: |||||||
 (g2 e) c2!p! e | d3 F3 | G3- G z |] %33
w: * * tes, sie|deckt euch|zu. _|
w: |||
w: |||
V:2
 D | G2 G G2 G | (F2 D) D2 D | D2 D D2 G | F3- F x F | G2 G G2 G | FGA BAG | F2 F E2 E | %8
w: ||||||||
 E x F F2 =F | ^F2 F !>!A2 G | F2 x x2 B | A2 G F2 c | B3 G2 B | A2 G F2 c | B3 G2 D | E2 E E2 E | %16
w: ||||||||
 (^D3 =D2 C) | (B,2 D) D2 G | G6 | (G2 G) G2 G | G3- G2 G | F3 A3 | (G2 =F) E2 E | D3 F3 | %24
w: |||||||deckt euch|
 G2 x x3 | F3 F2 F | G2 x x3 | F3 F2 F | G2 z z2 z | z2!f! B c2 d | c3 G2 G | G z z D z z | %32
w: |||||die Lie- be|Got- tes, *||
 D3- D x |] %33
w: |
V:3
!pp! B | d2 c e2 d | (c2 d) B2 B | B2 G !>!B2 d | d2 d fed | (^c2 e) e3 | d3 d2 d | d2 d ^c2 c | %8
w: 1.~Schon|fängt es an zu|däm- * mern, der|Mond als Hirt er-|wacht und singt _ der|Wol- * ken-|läm- mern ein|Lied zur gu- ten|
w: 2.~Und|wie nun al- le|Ker- * zen, ver-|lö- schen durch die|Nacht, da schwei- * gen|auch _ die|Schmer- zen, die|Sonn' und Tag ge-|
w: 4.~Gut'|Nacht denn, all' ihr|Mü- * den, ihr|Lie- ben nah und|fern; nun ruh' _ auch|ich _ im|Frie- den, bis|glänzt der Mor- gen-|
 ^c2 e d2 d | d3 ^c3 | d2!pp! d d2 d | d3 d3 | (d2 g) d2 d | d2 d d2 d | (d2 g) d2 d | c2 G GFE | %16
w: Nacht, ein Lied zur|gu- ten|Nacht; und wie er|singt so|lei- * se, da||||
w: bracht, die Sonn' und|Tag ge-|bracht; lind säu- seln|die Cy-|pres- * sen, ein||||
w: stern, bis glänzt der|Mor- gen-|stern. die Nach- ti-|gall al-|lei- * ne singt||||
 F6 |!pp! (G2 B) B2 d | B6 | d3 d2 =f |!f! e3- e2!p! c | A3 d3 | (d2 B) A2 c | B3 d3 | d2 z z3 | %25
w: |Schla- * fet in|Ruh',|schla- fet in|Ruh'! _ Die|Lie- be|Got- * tes, sie|deckt euch|zu.|
w: |||||||||
w: |||||||||
!p! A3 d2 d | d3 z3 |!pp! A3 d2 d | d2 z z3 | z2!f! =f f2 f | e3 e2!p! c | B z z c z z | B3- B z |] %33
w: Schla- fet in|Ruh'!|schla- fet in|Ruh',|die Lie- be|Got- tes, sie|deckt euch|zu. _|
w: ||||||||
w: ||||||||
V:4
!pp! G, | G,2 G, G,2 G, | D,3 G,2 G, | D,2 B,, !>!G,,2 B,, | D,3- D, z2 | z2 A, A,B,^C | %6
w: |||* * * er-|wacht _|und singt * der|
w: |||* * * die|Nacht, _|da schwei- * gen|
w: |||* * * und|fern; _|nun ruh' * auch|
 D2 F, G,G,G, | A,2 A, A,2 A, | ^A,2 A, B,2 _B, | A,3 A,3 | D,3 z3 | z3 z2!pp! F, | %12
w: Wol- ken- läm- mern ein|||||und|
w: auch die Schmer- zen, die|||||lind|
w: ich im Frie- den, bis|||||die|
 G,2 D, B,>A,G, | F,2 D, z2 F, | G,2 D, G,>A,B, | C>C,C, C,2 C, | B,,2 B,, D,3 | %17
w: wie er singt * so|lei- se, da|dringt vom Ster- * nen-|krei- se der Schall in's|Ohr mir sacht.|
w: säu- seln die * Cy-|pres- sen, ein|se- li- ges _ Ver-|ges- sen durch- weht die|Lüf- te sacht.|
w: Nach- ti- gall * al-|lei- ne singt|noch im Mon- * den-|schei- ne, und lo- bet|Gott den Herrn.|
!pp! (G,,2 G,) G,2 G, | G,6 | G,3 G,2 G, |!f! C3- C2!p! C, | D,3 F,3 | (G,2 ^G,) A,2 C, | D,3 D,3 | %24
w: |||||||
w: |||||||
w: |||||||
 G,2!p! !>!B,- B,A,G, | D,3 D,3 | G,2!pp! !>!B,- B,A,G, | D,3 D,3 | G,2 z z3 | %29
w: zu. Schla- * fet in|Ruh', in|Ruh', schla- * fet in|Ruh, in|Ruh',|
w: |||||
w: |||||
 z2!f! !>!G, !>!A,2 !>!B, | C3 C,2!p! C, | D, z z D, z z | G,,3- G,, z |] %33
w: ||||
w: ||||
w: ||||

